_inc/images/systems/logos/konami.svg

<svg viewBox="0 0 3839 646.1" xmlns="http://www.w3.org/2000/svg">
    <path class="st3" d="M386.2 0c-12.7 40.7-23.2 71.3-39.1 112.5-14.9 38.7-42 70-79.8 87.2-42.1 19.1-87.5 16-131 30.7C51.2 258.9 24.3 355 0 433.7h231.9c12.7-39.1 30.3-108 63.7-157 13.9-20.5 34.5-35.3 51.7-44.7 10-5.5 19.6-7.2 29.8-9.6 9-2.1 19.5-4.2 27.5-4.8 4.9-.3 10-1.1 15.3-1.6 5.8-.5 10.6-1.1 15.9-2.1 4.8-.5 16.3-2.4 20.1-3.2 10.1-2.1 19.5-5.8 25.9-7.9 5.7-1.9 12.2-5.3 18-7.4 1.2-.4 7.3-4.3 9-5.3 24-14 45.5-38 55.3-56.4 15.7-29.4 28.4-59.1 39.3-90.5 4.8-13.7 7.9-22.2 15.3-43.3H386.2Zm155.3 212.4c-12.7 40.7-23.2 71.3-39.1 112.5-14.9 38.7-42 70-79.8 87.1-42.1 19.2-87.5 16.1-131 30.6-85.1 28.6-112 124.7-136.3 203.4h231.9c12.7-39.1 30.3-108 63.7-157 14-20.5 34.6-35.3 51.8-44.7 10-5.5 19.6-7.2 29.8-9.6 9-2.1 19.6-4.2 27.5-4.8 4.9-.3 10-1.1 15.3-1.6 5.8-.5 10.6-1 15.8-2.1 4.8-.5 16.3-2.4 20.1-3.2 10.1-2.1 19.5-5.8 25.9-7.9 5.7-1.9 12.1-5.3 18-7.4 1.2-.4 7.3-4.3 9-5.3 24-14 45.4-38.1 55.3-56.4 15.7-29.4 28.4-59.1 39.3-90.5 4.8-13.7 7.9-22.2 15.3-43.3H541.5ZM1822.8 87.7c-32.7-22.5-68.4-31.3-120.6-32.1-58.8-1-116.7 11.8-163.6 39.4-38.2 22.4-72.2 56.9-94.6 101.8-31 62.1-73.7 145.5-74.9 230.9-.7 54.8 19.2 96.2 51.5 123.2 29.4 24.5 84.4 38.9 134 39.6 44.8.6 97.6-6.9 133.7-22.7 40.3-17.5 90.3-55.7 120.1-116.4 16.1-33 31.6-66.1 44.9-102.8 10.8-29.4 20-61 27.7-96.7 13.4-61.4-3.2-126.5-58.2-164.2Zm-136.3 317.4c-14.5 29.1-31.3 57.7-68.8 70-21.2 7-41.6 7.5-59.1 4.9-17.6-2.8-30.3-10.9-38.9-21.9-9.5-12.2-14.5-28.4-12.6-47.9 1.3-13.4 4.1-28.6 10.3-45.8 12.1-34.4 38.2-103 55.8-139.1 11.6-23.7 21.8-36.7 37.6-48.5 21.3-16.1 49.4-21.2 73.4-20.1 16.6.8 37.3 6.6 47.5 16.9 15.6 15.6 22.4 35.5 12.8 74.3-4.7 18.5-14.8 48.3-25.6 77.6-12 32.5-24.8 64.3-32.4 79.6Zm526.8 62.7 133.6-399.7H2477l-186.4 514H2092c-2.7-104.7-3-300.4-6.4-401l-133.1 401H1820l185.5-514h201.3c2.2 111.8 5.8 344 6.5 399.7m429.8-399.7-329.1 514h138.8l63-101.8H2684l-4.9 101.8h131l11.2-514h-178.2Zm47.1 308.2h-110.5c34.3-57.6 98.2-163.1 128.9-217.4-4.3 42.8-12.1 138-18.4 217.4Zm379.9-107.7L2965 582.1h-135.5l187-514h224.9c-7.2 78.5-32.1 229.4-53.3 357.9l203.6-357.9h229.2l-187.4 514h-135.2l157.3-415.6-254.3 415.6h-134.6l37.6-415.3c-13.5 44.9-34.2 101.8-34.2 101.8m631.2-200.5H3839l-187.2 514h-137.1l186.6-514" style="fill:#fff"/>
    <path class="st3" d="M1331.9 582.1 1257 302.9 1507.9 68h-170.7l-230 227.9c-1.3 1-2 2.1-3.2 3 .3 1.2.8 2.9 1.3 4.8l66.5 278.3h160.1Z" style="fill:#fff"/>
    <path class="st3" style="fill:#fff" d="m1001.6 582.1 186-514h-138.2l-187.2 514z"/>
</svg>

<?xml version="1.0" encoding="utf-8"?>
<svg version="1.1" viewBox="0 0 3839 646.1" xmlns="http://www.w3.org/2000/svg">
  <path class="st3" d="M 386.2 0 C 373.5 40.7 363 71.3 347.1 112.5 C 332.2 151.2 305.1 182.5 267.3 199.7 C 225.2 218.8 179.8 215.7 136.3 230.4 C 51.2 258.9 24.3 355 0 433.7 L 231.9 433.7 C 244.6 394.6 262.2 325.7 295.6 276.7 C 309.5 256.2 330.1 241.4 347.3 232 C 357.3 226.5 366.9 224.8 377.1 222.4 C 386.1 220.3 396.6 218.2 404.6 217.6 C 409.5 217.3 414.6 216.5 419.9 216 C 425.7 215.5 430.5 214.9 435.8 213.9 C 440.6 213.4 452.1 211.5 455.9 210.7 C 466 208.6 475.4 204.9 481.8 202.8 C 487.5 200.9 494 197.5 499.8 195.4 C 501 195 507.1 191.1 508.8 190.1 C 532.8 176.1 554.3 152.1 564.1 133.7 C 579.8 104.3 592.5 74.6 603.4 43.2 C 608.2 29.5 611.3 21 618.7 -0.1 L 386.2 -0.1 Z" style="fill: rgb(255, 255, 255);"/>
  <path class="st3" d="M 541.5 212.4 C 528.8 253.1 518.3 283.7 502.4 324.9 C 487.5 363.6 460.4 394.9 422.6 412 C 380.5 431.2 335.1 428.1 291.6 442.6 C 206.5 471.2 179.6 567.3 155.3 646 L 387.2 646 C 399.9 606.9 417.5 538 450.9 489 C 464.9 468.5 485.5 453.7 502.7 444.3 C 512.7 438.8 522.3 437.1 532.5 434.7 C 541.5 432.6 552.1 430.5 560 429.9 C 564.9 429.6 570 428.8 575.3 428.3 C 581.1 427.8 585.9 427.3 591.1 426.2 C 595.9 425.7 607.4 423.8 611.2 423 C 621.3 420.9 630.7 417.2 637.1 415.1 C 642.8 413.2 649.2 409.8 655.1 407.7 C 656.3 407.3 662.4 403.4 664.1 402.4 C 688.1 388.4 709.5 364.3 719.4 346 C 735.1 316.6 747.8 286.9 758.7 255.5 C 763.5 241.8 766.6 233.3 774 212.2 L 541.5 212.2 Z" style="fill: rgb(255, 255, 255);"/>
  <path class="st3" d="M 1822.8 87.7 C 1790.1 65.2 1754.4 56.4 1702.2 55.6 C 1643.4 54.6 1585.5 67.4 1538.6 95 C 1500.4 117.4 1466.4 151.9 1444 196.8 C 1413 258.9 1370.3 342.3 1369.1 427.7 C 1368.4 482.5 1388.3 523.9 1420.6 550.9 C 1450 575.4 1505 589.8 1554.6 590.5 C 1599.4 591.1 1652.2 583.6 1688.3 567.8 C 1728.6 550.3 1778.6 512.1 1808.4 451.4 C 1824.5 418.4 1840 385.3 1853.3 348.6 C 1864.1 319.2 1873.3 287.6 1881 251.9 C 1894.4 190.5 1877.8 125.4 1822.8 87.7 Z M 1686.5 405.1 C 1672 434.2 1655.2 462.8 1617.7 475.1 C 1596.5 482.1 1576.1 482.6 1558.6 480 C 1541 477.2 1528.3 469.1 1519.7 458.1 C 1510.2 445.9 1505.2 429.7 1507.1 410.2 C 1508.4 396.8 1511.2 381.6 1517.4 364.4 C 1529.5 330 1555.6 261.4 1573.2 225.3 C 1584.8 201.6 1595 188.6 1610.8 176.8 C 1632.1 160.7 1660.2 155.6 1684.2 156.7 C 1700.8 157.5 1721.5 163.3 1731.7 173.6 C 1747.3 189.2 1754.1 209.1 1744.5 247.9 C 1739.8 266.4 1729.7 296.2 1718.9 325.5 C 1706.9 358 1694.1 389.8 1686.5 405.1 Z" style="fill: rgb(255, 255, 255);"/>
  <path class="st3" d="M 2213.3 467.8 L 2346.9 68.1 L 2477 68.1 L 2290.6 582.1 L 2092 582.1 C 2089.3 477.4 2089 281.7 2085.6 181.1 L 1952.5 582.1 L 1820 582.1 L 2005.5 68.1 L 2206.8 68.1 C 2209 179.9 2212.6 412.1 2213.3 467.8" style="fill: rgb(255, 255, 255);"/>
  <path class="st3" d="M 2643.1 68.1 L 2314 582.1 L 2452.8 582.1 L 2515.8 480.3 L 2684 480.3 L 2679.1 582.1 L 2810.1 582.1 L 2821.3 68.1 L 2643.1 68.1 Z M 2690.2 376.3 L 2637.4 376.3 L 2579.7 376.3 C 2614 318.7 2677.9 213.2 2708.6 158.9 C 2704.3 201.7 2696.5 296.9 2690.2 376.3 Z" style="fill: rgb(255, 255, 255);"/>
  <path class="st3" d="M 3070.1 268.6 L 2965 582.1 L 2829.5 582.1 L 3016.5 68.1 L 3241.4 68.1 C 3234.2 146.6 3209.3 297.5 3188.1 426 L 3391.7 68.1 L 3620.9 68.1 L 3433.5 582.1 L 3298.3 582.1 L 3455.6 166.5 L 3201.3 582.1 L 3066.7 582.1 L 3104.3 166.8 C 3090.8 211.7 3070.1 268.6 3070.1 268.6" style="fill: rgb(255, 255, 255);"/>
  <polyline class="st3" points="3701.3 68.1 3839 68.1 3651.8 582.1 3514.7 582.1 3701.3 68.1" style="fill: rgb(255, 255, 255);"/>
  <path class="st3" d="M 1331.9 582.1 L 1257 302.9 L 1507.9 68 L 1337.2 68 L 1107.2 295.9 C 1105.9 296.9 1105.2 298 1104 298.9 C 1104.3 300.1 1104.8 301.8 1105.3 303.7 L 1171.8 582 L 1331.9 582 Z" style="fill: rgb(255, 255, 255);"/>
  <polygon class="st3" points="1001.6 582.1 1187.6 68.1 1049.4 68.1 862.2 582.1" style="fill: rgb(255, 255, 255);"/>
</svg>
